icons/arrow-square-top.svg

<svg width="24" height="24" viewBox="0 0 24 24" fill="none" xmlns="http://www.w3.org/2000/svg">
<path fill-rule="evenodd" clip-rule="evenodd" d="M3.75 15C3.75 17.8858 6.11421 20.25 9 20.25L15 20.25C17.8858 20.25 20.25 17.8858 20.25 15L20.25 9C20.25 6.21421 17.7858 3.75 15 3.75L9 3.75C6.11421 3.75 3.75 6.11421 3.75 9L3.75 15ZM9 21.75C5.28579 21.75 2.25 18.7142 2.25 15L2.25 9C2.25 5.28579 5.28579 2.25 9 2.25L15 2.25C18.6142 2.25 21.75 5.38579 21.75 9L21.75 15C21.75 18.7142 18.7142 21.75 15 21.75L9 21.75Z" fill="black"/>
<path fill-rule="evenodd" clip-rule="evenodd" d="M12 16.1499C11.5858 16.1499 11.25 15.8141 11.25 15.3999L11.25 8.7999C11.25 8.38569 11.5858 8.0499 12 8.0499C12.4142 8.0499 12.75 8.38569 12.75 8.7999L12.75 15.3999C12.75 15.8141 12.4142 16.1499 12 16.1499Z" fill="black"/>
<path fill-rule="evenodd" clip-rule="evenodd" d="M8.46967 11.9302C8.17678 11.6373 8.17678 11.1625 8.46967 10.8696L10.9697 8.36957C11.4626 7.87668 12.2374 7.87668 12.7303 8.36957L15.2303 10.8696C15.5232 11.1625 15.5232 11.6373 15.2303 11.9302C14.9374 12.2231 14.4626 12.2231 14.1697 11.9302L11.85 9.61056L9.53033 11.9302C9.23744 12.2231 8.76256 12.2231 8.46967 11.9302Z" fill="black"/>
</svg>

<svg xmlns="http://www.w3.org/2000/svg" fill="none" viewBox="0 0 24 24">
  <path fill="#000" fill-rule="evenodd" d="M3.75 15c0 2.886 2.364 5.25 5.25 5.25h6c2.886 0 5.25-2.364 5.25-5.25V9c0-2.786-2.464-5.25-5.25-5.25H9C6.114 3.75 3.75 6.114 3.75 9v6ZM9 21.75c-3.714 0-6.75-3.036-6.75-6.75V9c0-3.714 3.036-6.75 6.75-6.75h6c3.614 0 6.75 3.136 6.75 6.75v6c0 3.714-3.036 6.75-6.75 6.75H9Z" clip-rule="evenodd"/>
  <path fill="#000" fill-rule="evenodd" d="M12 16.15a.75.75 0 0 1-.75-.75V8.8a.75.75 0 0 1 1.5 0v6.6a.75.75 0 0 1-.75.75Z" clip-rule="evenodd"/>
  <path fill="#000" fill-rule="evenodd" d="M8.47 11.93a.75.75 0 0 1 0-1.06l2.5-2.5a1.233 1.233 0 0 1 1.76 0l2.5 2.5a.75.75 0 1 1-1.06 1.06l-2.32-2.32-2.32 2.32a.75.75 0 0 1-1.06 0Z" clip-rule="evenodd"/>
</svg>
